images/item-area-icon5.svg

<svg width="32" height="40" viewBox="0 0 32 40" fill="none" xmlns="http://www.w3.org/2000/svg">
<path d="M16.2667 39.0667C15.3334 39.0667 14.4 38.8 13.7334 38.2667C11.4667 36.8 9.33335 35.2 7.46668 33.3333C4.93335 31.2 3.06668 28.2667 2.13335 25.0667C1.73335 23.0667 1.60002 21.0667 1.73335 19.2C1.73335 17.3333 1.86668 15.6 2.00002 15.0667C2.00002 14.6667 2.13335 14.4 2.26668 14.1333C2.40002 13.8667 2.66668 13.4667 2.93335 13.2C3.20002 12.9333 3.46668 12.8 3.86668 12.8C4.13335 12.6667 4.53335 12.6667 4.93335 12.8C5.73335 12.9333 6.53335 12.9333 7.33335 13.0667C8.26668 13.0667 9.20002 13.0667 10.1333 12.8C10.9334 12.5333 11.7333 12 12.5333 11.3333C13.2 10.8 13.8667 10.2667 14.5333 9.73333C15.4667 8.79999 17.0667 8.79999 18 9.73333C18.6667 10.4 19.3334 10.9333 20 11.3333C20.8 12 21.7334 12.4 22.6667 12.8C23.3334 12.9333 24.1334 13.0667 24.9334 12.9333C25.4667 12.9333 26 13.3333 26 13.8667C26 14.4 25.6 14.9333 25.0667 14.9333C24.1333 14.9333 23.0667 14.9333 22.1334 14.6667C20.8 14.2667 19.7334 13.6 18.8 12.9333C18 12.4 17.3333 11.7333 16.5333 11.0667C16.4 10.9333 16 10.9333 15.8667 11.0667C15.2 11.7333 14.5334 12.2667 13.7334 12.8C12.8 13.7333 11.7334 14.2667 10.5334 14.6667C9.33335 14.9333 8.26668 15.0667 7.20002 14.9333C6.40002 14.9333 5.46668 14.8 4.66668 14.6667C4.66668 14.6667 4.53335 14.6667 4.40002 14.6667C4.26668 14.6667 4.26668 14.6667 4.26668 14.8L4.13335 14.9333V15.0667C4.13335 15.7333 3.86668 17.3333 3.86668 19.2C3.73335 20.9333 3.86668 22.8 4.13335 24.5333C5.06668 27.2 6.66668 29.8667 8.93335 31.7333C10.8 33.4667 12.8 35.0667 14.9334 36.5333C15.8667 37.2 16.9333 37.0667 17.8667 36.5333C19.8667 35.0667 21.7334 33.4667 23.6 31.7333C25.7334 29.7333 27.3333 27.2 28.1333 24.4C28.2667 23.8667 28.8 23.6 29.3333 23.7333C29.8667 23.8667 30.1333 24.4 30 24.9333C29.0667 28 27.2 30.8 24.9334 33.0667C23.2 34.9333 21.2 36.5333 19.0667 38C18.1334 38.8 17.2 39.0667 16.2667 39.0667Z" fill="#2667FF"/>
<path d="M18.6663 27.6C18.5329 27.6 18.2663 27.6 18.1329 27.4667C17.9996 27.4667 17.8663 27.3333 17.7329 27.2L13.9996 23.4667C13.5996 23.0667 13.5996 22.4 13.9996 22C14.3996 21.6 15.0663 21.6 15.4663 22L18.7996 25.3333L28.7996 15.3333C29.1996 14.9333 29.8663 14.9333 30.2663 15.3333C30.6663 15.7333 30.6663 16.4 30.2663 16.8L19.7329 27.3333C19.5996 27.4667 19.4663 27.6 19.3329 27.6C19.0663 27.4667 18.7996 27.6 18.6663 27.6Z" fill="#2667FF"/>
</svg>

<svg xmlns="http://www.w3.org/2000/svg" width="32" height="40" fill="none"><path fill="#2667FF" d="M16.267 39.067c-.934 0-1.867-.267-2.534-.8-2.266-1.467-4.4-3.067-6.266-4.934-2.534-2.133-4.4-5.066-5.334-8.266-.4-2-.533-4-.4-5.867 0-1.867.134-3.6.267-4.133 0-.4.133-.667.267-.934.133-.266.4-.666.666-.933.267-.267.534-.4.934-.4.266-.133.666-.133 1.066 0 .8.133 1.6.133 2.4.267.934 0 1.867 0 2.8-.267.8-.267 1.6-.8 2.4-1.467l2-1.6c.934-.933 2.534-.933 3.467 0 .667.667 1.333 1.2 2 1.6.8.667 1.733 1.067 2.667 1.467.666.133 1.466.267 2.266.133.534 0 1.067.4 1.067.934 0 .533-.4 1.066-.933 1.066-.934 0-2 0-2.934-.266-1.333-.4-2.4-1.067-3.333-1.734-.8-.533-1.467-1.2-2.267-1.866-.133-.134-.533-.134-.666 0-.667.666-1.334 1.2-2.134 1.733-.933.933-2 1.467-3.2 1.867-1.2.266-2.266.4-3.333.266-.8 0-1.733-.133-2.533-.266H4.4c-.133 0-.133 0-.133.133l-.134.133v.134c0 .666-.266 2.266-.266 4.133-.134 1.733 0 3.6.266 5.333.934 2.667 2.534 5.334 4.8 7.2a52.554 52.554 0 0 0 6 4.8c.934.667 2 .534 2.934 0 2-1.466 3.866-3.066 5.733-4.8 2.133-2 3.733-4.533 4.533-7.333.134-.533.667-.8 1.2-.667.534.134.8.667.667 1.2-.933 3.067-2.8 5.867-5.067 8.134C23.2 34.933 21.2 36.533 19.067 38c-.934.8-1.867 1.067-2.8 1.067Z"/><path fill="#2667FF" d="M18.666 27.6c-.133 0-.4 0-.533-.133-.133 0-.267-.134-.4-.267L14 23.467c-.4-.4-.4-1.067 0-1.467.4-.4 1.066-.4 1.466 0l3.334 3.333 10-10c.4-.4 1.066-.4 1.466 0 .4.4.4 1.067 0 1.467L19.733 27.333c-.133.134-.267.267-.4.267-.267-.133-.533 0-.667 0Z"/></svg>
